svgs/thin/laptop-mobile.svg

<svg xmlns="http://www.w3.org/2000/svg" viewBox="0 0 640 512"><!--! Font Awesome Pro 6.6.0 by @fontawesome - https://fontawesome.com License - https://fontawesome.com/license (Commercial License) Copyright 2024 Fonticons, Inc. --><path d="M128 16l320 0c26.5 0 48 21.5 48 48l0 32 16 0 0-32c0-35.3-28.7-64-64-64L128 0C92.7 0 64 28.7 64 64l0 224-44.8 0C8.6 288 0 296.6 0 307.2C0 349.6 34.4 384 76.8 384L352 384l0-16L76.8 368C43.2 368 16 340.8 16 307.2c0-1.8 1.4-3.2 3.2-3.2L64 304l16 0 272 0 0-16L80 288 80 64c0-26.5 21.5-48 48-48zM624 464c0 17.7-14.3 32-32 32l-160 0c-17.7 0-32-14.3-32-32l0-288c0-17.7 14.3-32 32-32l160 0c17.7 0 32 14.3 32 32l0 288zM432 512l160 0c26.5 0 48-21.5 48-48l0-288c0-26.5-21.5-48-48-48l-160 0c-26.5 0-48 21.5-48 48l0 288c0 26.5 21.5 48 48 48z"/></svg>

<svg xmlns="http://www.w3.org/2000/svg" viewBox="0 0 640 512"><!--! Font Awesome Pro 6.5.2 by @fontawesome - https://fontawesome.com License - https://fontawesome.com/license (Commercial License) Copyright 2024 Fonticons, Inc. --><path d="M128 16H448c26.5 0 48 21.5 48 48V96h16V64c0-35.3-28.7-64-64-64H128C92.7 0 64 28.7 64 64V288H19.2C8.6 288 0 296.6 0 307.2C0 349.6 34.4 384 76.8 384H352V368H76.8C43.2 368 16 340.8 16 307.2c0-1.8 1.4-3.2 3.2-3.2H64 80 352V288H80V64c0-26.5 21.5-48 48-48zM400 176c0-17.7 14.3-32 32-32H592c17.7 0 32 14.3 32 32V464c0 17.7-14.3 32-32 32H432c-17.7 0-32-14.3-32-32V176zm-16 0V464c0 26.5 21.5 48 48 48H592c26.5 0 48-21.5 48-48V176c0-26.5-21.5-48-48-48H432c-26.5 0-48 21.5-48 48z"/></svg>
